images/brand-logo.svg

<svg width="59" height="47" viewBox="0 0 59 47" fill="none" xmlns="http://www.w3.org/2000/svg">
<path d="M4.48764 39.2777C4.71752 39.5633 4.83998 39.9211 4.83356 40.2883C4.84529 40.5278 4.8032 40.7669 4.71042 40.9879C4.61763 41.2089 4.47652 41.4061 4.29754 41.5649C3.85095 41.9036 3.29769 42.0691 2.73933 42.0311H0V35.6262H2.68323C3.21289 35.5908 3.73833 35.7412 4.16977 36.0517C4.34305 36.1973 4.48026 36.3814 4.57058 36.5893C4.6609 36.7973 4.70185 37.0235 4.69021 37.2501C4.70595 37.6034 4.59543 37.9508 4.37857 38.2295C4.17037 38.4839 3.88265 38.6604 3.56206 38.7301C3.92548 38.7967 4.25352 38.9907 4.48764 39.2777ZM1.27461 38.3108H2.42146C2.6821 38.3302 2.94097 38.2546 3.1507 38.098C3.23681 38.0197 3.3038 37.9225 3.34649 37.814C3.38918 37.7055 3.40643 37.5885 3.39689 37.4722C3.40499 37.3564 3.38738 37.2402 3.34535 37.1319C3.30332 37.0237 3.2379 36.9262 3.15381 36.8465C2.93781 36.6854 2.6709 36.6087 2.40276 36.6306H1.27461V38.3108ZM3.26289 40.767C3.35493 40.6868 3.42729 40.5864 3.47432 40.4735C3.52134 40.3606 3.54178 40.2383 3.53402 40.1162C3.54104 39.9927 3.51967 39.8692 3.47158 39.7552C3.42349 39.6413 3.34995 39.54 3.25666 39.4591C3.03228 39.2921 2.75632 39.2101 2.47755 39.2276H1.27461V40.9892H2.49313C2.7674 41.0051 3.03889 40.9267 3.26289 40.767Z" fill="#AFB1B8"/>
<path d="M9.97245 42.0312L8.47968 39.528H7.91873V42.0312H6.63477V35.6262H9.06557C9.67829 35.5833 10.284 35.7781 10.7578 36.1706C11.0976 36.5183 11.3025 36.9763 11.3357 37.4622C11.3688 37.9482 11.228 38.43 10.9385 38.8209C10.6386 39.1658 10.229 39.3958 9.77923 39.4717L11.3686 42.0312H9.97245ZM7.91873 38.655H8.96896C9.6982 38.655 10.0628 38.3317 10.0628 37.6851C10.0703 37.553 10.0503 37.4208 10.0041 37.297C9.958 37.1731 9.88672 37.0602 9.79481 36.9654C9.56436 36.773 9.26757 36.6796 8.96896 36.7057H7.90626L7.91873 38.655Z" fill="#AFB1B8"/>
<path d="M16.9908 40.7421H14.4322L13.9803 42.0312H12.634L14.9838 35.6982H16.4392L18.7796 42.0312H17.4333L16.9908 40.7421ZM16.648 39.7721L15.7131 37.0687L14.7781 39.7721H16.648Z" fill="#AFB1B8"/>
<path d="M25.7759 42.0312H24.5013L21.6436 37.6757V42.0312H20.3721V35.6262H21.6436L24.5013 40.0068V35.6262H25.7759V42.0312Z" fill="#AFB1B8"/>
<path d="M33.0497 40.4981C32.7862 40.9817 32.3846 41.375 31.8966 41.6276C31.3418 41.909 30.7261 42.0477 30.1047 42.0313H27.8359V35.6263H30.1047C30.725 35.61 31.3399 35.7453 31.8966 36.0206C32.3845 36.2674 32.7865 36.6569 33.0497 37.1376C33.3121 37.6585 33.4488 38.2341 33.4488 38.8178C33.4488 39.4016 33.3121 39.9772 33.0497 40.4981ZM31.5912 40.3448C31.955 39.9193 32.155 39.377 32.155 38.8163C32.155 38.2555 31.955 37.7133 31.5912 37.2878C31.1515 36.9024 30.5781 36.7067 29.9956 36.7433H29.1106V40.8892H29.9956C30.5781 40.9258 31.1515 40.7302 31.5912 40.3448Z" fill="#AFB1B8"/>
<path d="M17.7886 0C17.7886 0 34.2401 6.236 33.8911 15.2599V30.5229C33.8911 30.5229 17.452 24.2838 17.7948 15.2599L17.7886 0Z" fill="#AFB1B8"/>
<path d="M48.5476 26.9497C51.6546 24.8029 55.2485 23.4732 59.0001 23.0824V18.3044C54.6774 19.9772 51.0104 23.0102 48.5476 26.9497Z" fill="#AFB1B8"/>
<path d="M46.6809 28.3889C49.2239 23.2477 53.6326 19.2804 59.0001 17.303V3.53564C59.0001 3.53564 35.5708 12.4187 36.0663 25.2693V46.9999C36.0663 46.9999 37.1103 46.6025 38.7527 45.8578C38.7527 45.1632 38.7527 44.4623 38.8275 43.7583C39.3124 37.7925 42.1372 32.2641 46.6809 28.3889Z" fill="#AFB1B8"/>
<path d="M44.4525 36.4616C44.5756 34.9545 44.8502 33.4638 45.2721 32.0122C42.4429 35.3588 40.7296 39.5116 40.3731 43.8866C40.3388 44.2996 40.3201 44.7126 40.3108 45.1382C41.6415 44.4967 43.1904 43.6957 44.8171 42.7539C44.402 40.684 44.2792 38.5658 44.4525 36.4616Z" fill="#AFB1B8"/>
<path d="M45.3843 36.5398C45.2284 38.4436 45.3258 40.3597 45.6741 42.2377C52.0753 38.3922 59.268 32.4503 58.9906 25.2693V24.6436C54.4172 25.1573 50.1384 27.1646 46.8116 30.357C46.0327 32.3354 45.5517 34.4192 45.3843 36.5398Z" fill="#AFB1B8"/>
</svg>

<svg width="59" height="47" fill="none" xmlns="http://www.w3.org/2000/svg"><path d="M4.4876 39.2777c.23.2856.3524.6434.346 1.0106a1.6047 1.6047 0 01-.1232.6996 1.5986 1.5986 0 01-.4129.577 2.3178 2.3178 0 01-1.5582.4662H0v-6.4049h2.6832a2.2838 2.2838 0 011.4866.4255c.1732.1456.3105.3297.4008.5376.0903.208.1313.4342.1196.6608a1.4873 1.4873 0 01-.3116.9794 1.4548 1.4548 0 01-.8165.5006c.3634.0666.6914.2606.9255.5476zm-3.213-.9669h1.1469a1.0843 1.0843 0 00.7292-.2128.7598.7598 0 00.1958-.284.7634.7634 0 00.0504-.3418.7885.7885 0 00-.0516-.3403.7846.7846 0 00-.1915-.2854 1.1055 1.1055 0 00-.751-.2159H1.2746v1.6802zM3.263 40.767a.7944.7944 0 00.2114-.2935.7979.7979 0 00.0597-.3573.8078.8078 0 00-.2774-.6571 1.1809 1.1809 0 00-.779-.2315h-1.203v1.7616h1.2185a1.2057 1.2057 0 00.7698-.2222zM9.9725 42.0312L8.4796 39.528h-.561v2.5032h-1.284v-6.405h2.4309a2.3905 2.3905 0 011.6922.5444 2.049 2.049 0 01.1807 2.6503 1.971 1.971 0 01-1.1593.6508l1.5894 2.5595H9.9724zM7.9187 38.655H8.969c.7292 0 1.0938-.3233 1.0938-.9699a.9553.9553 0 00-.0587-.3881.9546.9546 0 00-.2093-.3316 1.1344 1.1344 0 00-.8258-.2597H7.9063l.0124 1.9493zM16.9908 40.7421h-2.5586l-.4519 1.2891H12.634l2.3498-6.333h1.4554l2.3404 6.333h-1.3463l-.4425-1.2891zm-.3428-.97l-.9349-2.7034-.935 2.7034h1.8699zM25.7759 42.0312h-1.2746l-2.8577-4.3555v4.3555h-1.2715v-6.405h1.2715l2.8577 4.3806v-4.3806h1.2746v6.405zM33.0497 40.4981a2.7565 2.7565 0 01-1.1531 1.1295 3.7426 3.7426 0 01-1.7919.4037h-2.2688v-6.405h2.2688a3.8157 3.8157 0 011.7919.3943 2.7096 2.7096 0 011.1531 1.117 3.7351 3.7351 0 01.3991 1.6802 3.7352 3.7352 0 01-.3991 1.6803zm-1.4585-.1533a2.3524 2.3524 0 00.5638-1.5285c0-.5608-.2-1.103-.5638-1.5285a2.2103 2.2103 0 00-1.5956-.5445h-.885v4.1459h.885a2.2102 2.2102 0 001.5956-.5444zM17.7886 0s16.4515 6.236 16.1025 15.2599v15.263s-16.4391-6.2391-16.0963-15.263L17.7886 0zM48.5476 26.9497a22.485 22.485 0 0110.4525-3.8673v-4.778c-4.3227 1.6728-7.9897 4.7058-10.4525 8.6453z" fill="#AFB1B8"/><path d="M46.6809 28.3889c2.543-5.1412 6.9517-9.1085 12.3192-11.0859V3.5356s-23.4293 8.8831-22.9338 21.7337v21.7306s1.044-.3974 2.6864-1.1421c0-.6946 0-1.3955.0748-2.0995.4849-5.9658 3.3097-11.4942 7.8534-15.3694z" fill="#AFB1B8"/><path d="M44.4525 36.4616a22.5076 22.5076 0 01.8196-4.4494c-2.8292 3.3466-4.5425 7.4994-4.899 11.8744-.0343.413-.053.826-.0623 1.2516 1.3307-.6415 2.8796-1.4425 4.5063-2.3843a22.5775 22.5775 0 01-.3646-6.2923zM45.3843 36.5398a21.5858 21.5858 0 00.2898 5.6979c6.4012-3.8455 13.5939-9.7874 13.3165-16.9684v-.6257c-4.5734.5137-8.8522 2.521-12.179 5.7134a21.4957 21.4957 0 00-1.4273 6.1828z" fill="#AFB1B8"/></svg>
